src/assets/svg/icons/fa/nuevos/classic/light/paperclip-vertical classic light.svg

<svg xmlns="http://www.w3.org/2000/svg" viewBox="0 0 384 512"><!--! Font Awesome Pro 6.4.0 by @fontawesome - https://fontawesome.com License - https://fontawesome.com/license (Commercial License) Copyright 2023 Fonticons, Inc. --><path d="M64 96c0-53 43-96 96-96s96 43 96 96V352c0 35.3-28.7 64-64 64s-64-28.7-64-64V144c0-8.8 7.2-16 16-16s16 7.2 16 16V352c0 17.7 14.3 32 32 32s32-14.3 32-32V96c0-35.3-28.7-64-64-64s-64 28.7-64 64V384c0 53 43 96 96 96s96-43 96-96V144c0-8.8 7.2-16 16-16s16 7.2 16 16V384c0 70.7-57.3 128-128 128s-128-57.3-128-128V96z"/></svg>

<svg xmlns="http://www.w3.org/2000/svg" viewBox="0 0 384 512"><path d="M64 96C64 42.98 106.1 0 160 0C213 0 256 42.98 256 96V352C256 387.3 227.3 416 192 416C156.7 416 128 387.3 128 352V144C128 135.2 135.2 128 144 128C152.8 128 160 135.2 160 144V352C160 369.7 174.3 384 192 384C209.7 384 224 369.7 224 352V96C224 60.65 195.3 32 160 32C124.7 32 96 60.65 96 96V384C96 437 138.1 480 192 480C245 480 288 437 288 384V144C288 135.2 295.2 128 304 128C312.8 128 320 135.2 320 144V384C320 454.7 262.7 512 192 512C121.3 512 64 454.7 64 384V96z"/></svg>
